assets/efishery/kincir-fill.svg

<svg width="24" height="25" viewBox="0 0 24 25" fill="none" xmlns="http://www.w3.org/2000/svg">
<path d="M7 7.02344C7 4.95237 8.67893 3.27344 10.75 3.27344C12.8211 3.27344 14.5 4.95237 14.5 7.02344V7.54104C13.602 7.66376 12.25 8.52344 12.25 10.5234H10.898C9 9.27344 8.7469 9.11682 8.19627 9.11682C7.64564 9.11682 7.12024 9.95633 7 10.2734V7.02344Z" fill="#1D1D1D"/>
<path d="M12 16.0234C12 14.5047 13.2312 13.2734 14.75 13.2734C16.2688 13.2734 17.5 14.5047 17.5 16.0234C17.5 17.5422 16.2688 18.7734 14.75 18.7734C13.2312 18.7734 12 17.5422 12 16.0234Z" fill="#1D1D1D"/>
<path fill-rule="evenodd" clip-rule="evenodd" d="M16.5001 9.02344C16.5001 8.8011 16.4014 8.59022 16.2307 8.44772C16.06 8.30522 15.8349 8.2458 15.6162 8.28549C14.4069 8.50489 13.6893 9.21794 13.325 10.0206C13.0796 10.5612 12.9977 11.1298 13.0002 11.6061C12.618 11.7577 12.2601 11.9573 11.9341 12.1977C11.8901 12.1438 11.8377 12.0951 11.7775 12.0537L9.30507 10.3544C9.12184 10.2285 8.89216 10.1904 8.67805 10.2503C8.46395 10.3103 8.28747 10.4621 8.19627 10.6649C7.69213 11.7858 7.87332 12.781 8.3285 13.5359C8.76069 14.2527 9.42271 14.7332 9.91131 14.9693C9.97361 14.9994 10.0383 15.0202 10.1036 15.0321C10.0766 15.1591 10.0548 15.2879 10.0382 15.4184L7.51823 16.2372C7.30677 16.3059 7.1367 16.4649 7.05392 16.6713C6.97113 16.8776 6.98418 17.1101 7.08953 17.3059C7.67189 18.3882 8.57178 18.8503 9.44776 18.9487C9.97409 19.0079 10.4814 18.9364 10.9058 18.8141C10.9631 18.8929 11.0228 18.9699 11.0847 19.0449C10.9555 19.0307 10.8238 19.0234 10.69 19.0234C9.7085 19.0234 8.83709 19.4162 8.28977 20.0234C8.28066 20.0335 8.27165 20.0437 8.26272 20.0539C8.01481 20.3378 7.83686 20.6668 7.75 21.0234H21.63C21.54 20.654 21.3522 20.3141 21.0902 20.0234C21.0487 19.9774 21.0054 19.9326 20.9603 19.8892C20.4102 19.3589 19.5971 19.0234 18.69 19.0234C18.6007 19.0234 18.5124 19.0267 18.4251 19.0331C18.5209 18.9162 18.6112 18.7947 18.6957 18.669L21.2664 19.6816C21.4733 19.7631 21.7056 19.7486 21.9008 19.642C22.0959 19.5354 22.2337 19.3478 22.2769 19.1297C22.516 17.9241 22.1156 16.9951 21.5023 16.362C20.9199 15.7608 20.1668 15.4416 19.6376 15.3214C19.5734 15.3068 19.509 15.3009 19.4457 15.3031C19.4384 15.255 19.4304 15.2071 19.4216 15.1594C19.4681 15.134 19.5125 15.1032 19.5541 15.0671L21.8183 13.0989C21.9861 12.953 22.0805 12.7402 22.0761 12.5179C22.0716 12.2956 21.9688 12.0867 21.7953 11.9477C20.8364 11.1789 19.8274 11.1052 18.9826 11.3568C18.3968 11.5314 17.9023 11.8561 17.5415 12.1798C17.2221 11.9475 16.8726 11.754 16.5001 11.6062V9.02344ZM15.6377 19.1507C17.0011 18.7645 18 17.5106 18 16.0234C18 14.2306 16.5483 12.7768 14.7562 12.7734H14.7438C12.9517 12.7768 11.5 14.2306 11.5 16.0234C11.5 16.1634 11.5089 16.3013 11.526 16.4366L11.8993 17.5855C12.304 18.3225 12.9862 18.8855 13.8052 19.134C14.0848 19.0621 14.382 19.0234 14.69 19.0234C15.0211 19.0234 15.3398 19.0682 15.6377 19.1507Z" fill="#1D1D1D"/>
<path d="M2.75 11.2734H7.19726C7.12636 11.674 7.08573 12.2322 7.17356 12.7734H2.75C2.33579 12.7734 2 12.4377 2 12.0234C2 11.6092 2.33579 11.2734 2.75 11.2734Z" fill="#1D1D1D"/>
<path d="M7.43754 13.2734C7.75002 14.0234 8.24999 14.7734 8.75 15.0234C8.75 15.0234 8.62434 15.1717 8.308 15.315C8.11987 15.4002 7.93006 15.4787 7.74524 15.5552C7.0749 15.8327 6.47025 16.0829 6.25 16.5234C5.96902 17.0854 6.75 19.0234 8.308 19.7734H6.75C4.12665 19.7734 2 17.6468 2 15.0234V14.0234C2 13.6092 2.33579 13.2734 2.75 13.2734H7.43754Z" fill="#1D1D1D"/>
</svg>

<svg viewBox="0 0 24 25" xmlns="http://www.w3.org/2000/svg">
  <path d="M7 7.023a3.75 3.75 0 1 1 7.5 0v.518c-.898.123-2.25.982-2.25 2.982h-1.352C9 9.273 8.747 9.117 8.196 9.117c-.55 0-1.076.84-1.196 1.156v-3.25zM12 16.023a2.75 2.75 0 1 1 5.5 0 2.75 2.75 0 0 1-5.5 0z"/>
  <path fill-rule="evenodd" clip-rule="evenodd" d="M16.5 9.023a.75.75 0 0 0-.884-.738c-1.21.22-1.927.933-2.291 1.736A3.83 3.83 0 0 0 13 11.606c-.382.152-.74.351-1.066.592a.752.752 0 0 0-.156-.144l-2.473-1.7a.75.75 0 0 0-1.109.31c-.504 1.122-.323 2.117.133 2.872a3.894 3.894 0 0 0 1.582 1.433c.063.03.127.051.193.063a4.723 4.723 0 0 0-.066.386l-2.52.82a.75.75 0 0 0-.428 1.068c.582 1.082 1.482 1.544 2.358 1.643a3.788 3.788 0 0 0 1.458-.135c.057.079.117.156.179.23a3.612 3.612 0 0 0-.395-.02c-.981 0-1.853.392-2.4 1l-.027.03a2.306 2.306 0 0 0-.513.97h13.88c-.09-.37-.278-.71-.54-1a2.647 2.647 0 0 0-.13-.135c-.55-.53-1.363-.866-2.27-.866-.09 0-.178.004-.265.01.096-.117.186-.238.27-.364l2.571 1.013a.75.75 0 0 0 1.01-.552c.24-1.206-.16-2.135-.774-2.768a3.895 3.895 0 0 0-1.864-1.04.748.748 0 0 0-.192-.019 4.58 4.58 0 0 0-.024-.144.753.753 0 0 0 .132-.092l2.264-1.968a.75.75 0 0 0-.023-1.151c-.959-.77-1.968-.843-2.812-.591-.586.174-1.08.5-1.442.823a4.748 4.748 0 0 0-1.04-.574V9.023zm-.862 10.128a3.251 3.251 0 0 0-.882-6.378h-.012a3.25 3.25 0 0 0-3.218 3.664l.373 1.148a3.259 3.259 0 0 0 1.906 1.549c.28-.072.577-.11.885-.11.331 0 .65.044.948.127z"/>
  <path d="M2.75 11.273h4.447c-.07.401-.111.96-.023 1.5H2.75a.75.75 0 1 1 0-1.5zM7.438 13.273c.312.75.812 1.5 1.312 1.75 0 0-.126.149-.442.292-.188.085-.378.164-.563.24-.67.278-1.275.528-1.495.968-.281.562.5 2.5 2.058 3.25H6.75A4.75 4.75 0 0 1 2 15.023v-1a.75.75 0 0 1 .75-.75h4.688z"/>
</svg>
